!!!OTL: EY DU EDLER TANNENBAUM, DU BIST A  EDLER ZWEIG
!!!ARE: Europa, Mitteleuropa, Deutschland, Kuhlaendchen
!!!SCT: Z0139
!!!YEM: Copyright 1995, estate of Helmut Schaffrath.
**kern
*ICvox
*Ivox
*M3/4
*k[b-e-]
*g:
=1
{8g
8g
4b-
4g
=2
8a
8a
4dd}
{4dd
=3
8cc
8cc
4b-
4g
=4
4fn
4r}
{8fn
8g
=5
8g
8g
4b-
4g
=6
4a
4dd}
{4dd
=7
8b-
8g
8b-
8a
8g
8f#
=8
2g
4r}
==
!!!AGN: Erzaehlung, lustige Romanze
!!!ONB: ESAC (Essen Associative Code) Database: ZUCCAL
!!!AMT: simple triple
!!!AIN: vox
!!!EED: Helmut Schaffrath
!!!EEV: 1.0
*-
